X:1
T:Titel (500)
T:Je ne l'ose dire
T:Pierre Certon (1510-1572)
T: 
T:551
C:Pierre Certon
%%score 1 2 3 4
L:1/8
Q:1/4=160
M:4/4
K:C
V:1 treble nm="S"
V:2 treble nm="A"
V:3 treble-8 nm="T"
V:4 bass nm="B"
V:1
!f! A2 ^G2 A2!p! cc |:S c2 BB B2 A2- | AAAA ^G2 A2 |!f! c2 B2 A4 |!p! AAA^G A2 B2 |!f! c2 B2 A4 | %6
w: La, la, la, je ne|l'o, je ne l'o, je-|* ne l'o- se di- re|La, la, la,|je le vous di- rai, et|la, la, la,|
w: ||||||
w: ||||||
w: ||||||
!p! AAA^G A4!fine! ||!mf! A2 A2 A2 c2 | B2 A2 ^G2 A2 | c3 c B2 A2 | A2 ^G2 A4 | c3 c c2 c2 | %12
w: je le vous di- rai.|1.Il est un homme|en no vil- le|qui da sa femme|est ja- loux.|1.Il n'est pas ja-|
w: |2.Il n'est pas ja-|loux sans cau- se.|Mais il est co-|cu du tout.|2.Il l'ap- prête et|
w: |3.En- fin, las de|ce sup- pli- ce,|le pauvre hom- me|se pen- dit.|3.Mais sa fem- me|
w: |4.La mo- rale de|cette his- toi- re|c'est qu'a- vant de|se ma- rier|4.il faut sa- voir|
 e2 c2 B2 A2 | c3 c B2 A2 | G2 F2 E2!f! A2 | A2 ^G2 A2!p! cc!D.S.! :| %16
w: loux sans cau- se.|Mais il est co-|cu du tout. Et|la, la, la, je ne|
w: s'il la mè- ne,|au mar- ché s'en|va à tout. Et|la, la, la, je ne|
w: par ma- li- ce|chez Lu- ci- fer|le sui- vit. Et|la, la, la, je ne|
w: le jour mê- me|que c'est pour l'é-|ter- ni- té. Et|la, la, la, je ne|
V:2
!f! E2 E2 C2!p! AA |: E2 GG D2 F2- | FFEE E2 C2 |!f! A2 G2 F4 |!p! FFEE C2 G2 |!f! A2 G2 F4 | %6
!p! FFEE C4 ||!mf! E2 E2 E2 G2 | G2 E2 E2 C2 | E3 A G2 F2 | F2 E2 C4 | A3 A A2 A2 | B2 A2 ^G2 A2 | %13
 A2 G2 G2 E2 | E2 C2 C2!f! E2 | F2 E2 C2!p! AA :| %16
V:3
!f! c2 B2!>(! A4!>)! |: cd e2 Bc d2 | ABcA B2 A2 |!f! e2 e2 c4 |!p! ddcB A2 e2 |!f! e2 e2 c4 | %6
w: La, la, la|je ne l'o, je ne l'o,|je ne l'o- se di- re|La, la, la|je le vous di- rai, et|la, la, la|
w: ||||||
w: ||||||
w: ||||||
!p! ddcB A4 ||!mf! c2 c2 c2 e2 | d2 c2 B2 A2 | ABcd e2 c2 | d2 B2 A4 | e3 e e2 e2 | e2 e2 e2 c2 | %13
w: je le vous di- rai.|1.Il est un homme|en no vil- le|qui- * * da sa femme|est ja- loux.|1.Il n'est pas ja-|loux sans cau- se.|
w: |2.Il n'est pas ja-|loux sans cau- se.|Mais- * * il est co-|cu du tout.|2.Il l'ap- prête et|s'il la mè- ne,|
w: |3.En- fin, las de|ce sup- pli- ce,|le- * * pauvre hom- me|se pen- dit.|3.Mais sa fem- me|par ma- li- ce|
w: |4.La mo- rale de|cette his- toi- re|c'est- * * qu'a- vant de|se ma- rier|4.il faut sa- voir|le jour mê- me|
 c2 e2 d2 c2 | B2 A2 G2!f! c2 | B2 B2!>(! A4!>)! :| %16
w: Mas il est co-|cu du tout. Et|la, la, la.|
w: au mar- ché s'en|va à tout. Et|la, la, la.|
w: chez Lu- ci- fer|le sui- vit. Et|la, la, la.|
w: que c'est pour l'é-|ter- ni- té. Et|la, la, la.|
V:4
!f! A,2 E,2!>(! A,4!>)! |: A,A, E,2 A,A, D,2 | D,D,A,A, E,2 A,2 |!f! A,2 E,2 F,4 | %4
!p! D,D,E,E, A,2 E,2 |!f! A,2 E,2 F,4 |!p! D,D,E,E, A,4 ||!mf! A,2 A,2 A,2 E,2 | G,2 A,2 E,2 A,2 | %9
 A,3 A, E,2 F,2 | D,2 E,2 A,4 | A,3 A, A,2 A,2 | G,2 A,2 E,2 A,2 | A,2 C2 G,2 A,2 | %14
 E,2 F,2 C,2!f! C,2 | D,2 E,2!>(! A,,4!>)! :| %16

